X:1
T: The Flight of the Earls
C:
R:Reel
Q: 232
K:F
M:4/4
L:1/8
|:C2|F3G FE DC|c2 cd c2 cB|A2 F2 AG FE|D3D C2 ((3CDE)|
F3G FE DC|c2 cd c2 cB|A2 AG FG A=B|c6 c2|
d2 dB f2 fd|c2 cB A2 c2|B2 A2 G2 F2|D3D C2 ((3CDE)|
F3G FE DC|c2 cd c2 cB|A2 F2 AG FE|F6:|
